X: 20
T: Toby Peyton
C: Carolan
%R: reel
B: "The Hibernian Muse" p.13 #1
F: http://imslp.org/wiki/The_Hibernian_Muse_%28Various%29
Z: 2015 John Chambers <jc:trillian.mit.edu>
P: No. XX.
M: C
L: 1/8
K: Cdor
% - - - - - - - - - - - - - - - - - - - - - - - - - - - - -
V: 1
[|\
g2 {g}fd/c/ .c(cdc) | {c}BGAB fdBf | fgf2 (g/a/b) b2 | b2f2 (g/f/g/b/) c'2 |\
c'gc'2 d'(b/c'/)d'2 | c'(a/b/) c'2 (b/a/g/a/) b2 | g2 (a/g/f/d/) f2 (g/f/d/c/) |
TB2GF Gcc2 | (c/B/c/d/) c2 Bfd2 | Bbg2 Tfdc2 | {c}B2 (G/F/G/B/) c2 c2 |]|\
GA B2 {B}AG (F/D/C/B,/) | Gc ~c2 Gc ~c2 | (d/e/f) ~f2 Tfd {c}B2 | dg ~g2 dg~ga |
bB~B2 bB~B2 | cc'~c'2 cc'~c'2 | (b/a/b/c'/) d'2 c'2 (d'/c'/b/a/) | b2 (c'/b/a/g/) a2 (b/a/g/f/) |\
d3 (g/a/ b)d Tc2 | Bcd2 bdTc2 | Bcd2 gcTd2 | {c}B2 (G/F/G/B/) c2 c2 |]
% - - - - - - - - - - - - - - - - - - - - - - - - - - - - -
V: 2 clef=bass middle=d
[|\
c2d2 e2c2 | d2d2 B2B2 | b2b2 g2g2 | d2d2 e2e2 |\
c2c2 B2b2 | a2f2 e2c2 | e2z2 d2z2 |
e2f2 e2c2 | c'2z2 b2z2 | g2e2 f2F2 | G4 c2C2 |]|\
e2c2 f2d2 | e2c2 e2c2 | B2G2 B2G2 | g2z2 g2z2 |
b2z2 a2z2 | a2z2 a2z2 | b2z2 a2z2 | g2z2 f2z2 |\
e2z2 d2f2 | b2B2 d2f2 | b2B2 e2f2 | g2G2 c2c2 |]

%%sep 2 1 500
%%sep 1 1 500

